!!!COM: Scriabin, Alexander
!!!OTL@@FR: Prélude en la bémol majeur
!!!OTL@@EN: Prelude in Ab Major
!!!OPR@@FR: 4 Préludes
!!!OPR@@EN: 4 Preludes
!!!OPS: 33
!!!ONM: 4
!!!ODT: 1900
!!!AGN: Prelude
**kern	**kern	**dynam
*staff2	*staff1	*staff1/2
*Ipiano	*Ipiano	*
*clefF4	*clefG2	*
*k[b-e-a-d-]	*k[b-e-a-d-]	*
*A-:	*A-:	*
*M5/4	*M5/4	*
*	*^	*
4CC 4C	4A- 4e-	8a-L	f
.	.	8e-J	.
=1	=1	=1	=1
4C-X 4c-X	4An 4e-	12gL	.
.	.	12g-X	.
.	.	24r	.
.	.	24ee-J	.
4CC-X 4C-	[2A [2e-	[2f	.
4CCC-X 4CC-	.	.	.
4CC- 4C-	4A] 4e-]	4f]	.
4CCn 4Cn	4A-X 4e-	8a-XL	.
.	.	8e-J	.
=2	=2	=2	=2
4C-X 4c-X	4An 4e-	12gL	.
.	.	12g-X	.
.	.	24r	.
.	.	24ee-J	.
4CC-X 4C-	[2A [2e-	[2f	.
4CCC-X 4CC-	.	.	.
4CC- 4C-	4A] 4e-]	4f]	.
4CC- 4C-	4A 4e-	8fL	.
.	.	8f#XJ	.
!!LO:LB:g=original
=3	=3	=3	=3
4BB- 4B-	4A-X 4e-	12ccnL	<
.	.	12g	(
.	.	24r	(
.	.	24ee-Jk	(
4BBB- 4BB-	[2e- [2cc	[2gg	[
4BBBB- 4BBB-	.	.	.
4BBB- 4BB-	4e-] 4cc]	4gg]	.
*	*	*^	*
4BB- 4B-	8en\L	4a-	8cc#XL	.
.	8fJ	.	8ddnJ	.
*	*	*v	*v	*
=4	=4	=4	=4
4E- 4B- 4e-	[2.g	2.ddn	>
4EE- 4E-	.	.	)
4EEE- 4EE-	.	.	)
4EE- 4E-	4g]	4ee-	)
4GG 4G	4e- 4b-	8ee-L	]
.	.	8b-J	.
=5	=5	=5	=5
4G-X 4g-X	4en 4b-	12ddnL	.
.	.	12dd-X	.
.	.	24r	.
.	.	24bb-J	.
*	*	*^	*
4GG-X 4G-	8e-X\L	4.b-	[2cc	.
.	8enJ	.	.	.
4GGG-X 4GG-	8c\L	.	.	.
.	[8eJ	8an	.	.
4GG- 4G-	8e\L]	4b-	4cc]	.
.	8eJ	.	.	.
4FF 4F	8f\L	4a-X	8dd-L	.
.	8d-J	.	8a-J	.
!!LO:LB:g=original
=6	=6	=6	=6	=6
4F-X 4f-x	4dn\	4a-	12ccL	.
.	.	.	12cc-X	.
.	.	.	24r	.
.	.	.	24aa-J	.
4FF-X 4F-	8d-X\L	4.a-	[2b-	.
.	8dnJ	.	.	.
4FFF-X 4FF-	8B-\L	.	.	.
.	[8dJ	8g	.	.
4FF- 4F-	8d\L]	4a-	4b-]	.
.	8dJ	.	.	.
*	*	*v	*v	*
4FF- 4F-	4d 4a-	8b-L	.
.	.	8bnJ	.
=7	=7	=7	=7
4E- 4e-	4d-X 4a-	12ffL	ff
.	.	12cc	<
.	.	24r	(
.	.	24aa-Jk	(
*	*	*^	*
4EE- 4E-	8cc\L	4.ff	2.ccc	[
.	8dd-J	.	.	.
4EEE- 4EE-	2a-\	.	.	.
.	.	8een	.	.
4EE- 4E-	.	8ffL	.	.
.	.	8dd-J	.	.
4E- 4e-	8an\L	4dd-	8ff#XL	.
.	8b-J	.	8ggJ	.
*	*	*v	*v	*
=8	=8	=8	=8
4A- 4e- 4a-	[2.cc	2.gg	>
4AA- 4A-	.	.	)
4AAA- 4AA-	.	.	)
4AA- 4A-	4cc]	4aa-	)
*	*v	*v	*
8AA-L 8A-	4r	] mp
8EE-J 8E-	.	.
!!LO:LB:g=original
=9	=9	=9
12GGL 12G	8e-L 8a- 8cc	.
12GG-X 12G-X	.	.
.	8cJ	.
24r	.	.
24E-Jk 24e-	.	.
4FF 4F	8AnL 8dn	.
.	8cJ 8e-	.
4FFF 4FF	8E-L	.
.	[8cJ 8g#X	.
4FF 4F	8cL] 8e- 8an	.
.	8AJ	.
*	*^	*
4FF 4F	4e- 4a	12bnL	<
.	.	12cc	.
.	.	24r	.
.	.	24cc#XJk	.
*	*v	*v	*
=10	=10	=10
4AAn 4D#X 4c#X	8anL 8cc#X 8ff	f
.	8fJ	.
4AAAn 4AA	8c#XL 8g#X	.
.	8fJ 8a	.
4AAAAn 4AAA	8c#L	.
.	[8aJ 8dd#X	.
4AA 4En 4c#	8aL] 8cc# 8een	.
.	8enJ	.
8AAL 8An	4r	.
8EEnJ 8E	.	.
!!LO:LB:g=original
=11	=11	=11
12AAnL 12An	8enL 8an 8cc#X	.
12AA-X 12A-X	.	.
.	8c#XJ	.
24r	.	.
24F-XJk 24f-X	.	.
*	*^	*
4GG 4G	4B-	8dnL	.
.	.	8d-XJ 8e-X	.
*	*v	*v	*
4GGG 4GG	8E-L	.
.	[8d-J 8an	.
4GG 4G	8d-L] 8e- 8b-	.
.	8B-J	.
*	*^	*
4GG 4G	4d-X 4e- 4b-	12ddnL	<
.	.	12ee-	.
.	.	24r	.
.	.	24b-Jk	.
*	*v	*v	*
=12	=12	=12
4G-X 4g-X	8e-L 8b-	ff
.	[8cJ	.
*	*^	*
4GG-X 4G-	4c]	8dnL	.
.	.	8e-J	.
*	*v	*v	*
4GGG-X 4GG-	8E-L	.
.	[8cJ 8gn	.
4GG- 4G-	8cL] 8e- 8a-	.
.	8A-J	.
4GG- 4G-	8e-L 8a- 8cc	>
.	8A-J	.
!!LO:LB:g=original
=13	=13	=13
4F 4f	8a-L 8cc	p
.	8cJ	<
*	*^	*
4FF 4F	4e-	8gL	.
.	.	8a-J	.
*	*v	*v	*
4FFF 4FF	8A-L	.
.	8e-J 8g	.
4FF 4F	8a-L 8dd-	.
.	8d-J	.
4FF 4F	8a-L 8ee-	.
.	8cJ	.
=14	=14	=14
4F-X 4f-X	8ee-L 8aa-	.
.	8a-J	.
*	*^	*
4FF-X 4F-	4a-	8ddnL	.
.	.	8ee-J	.
*	*v	*v	*
4FFF-X 4FF-	8e-L	.
.	[8a-J 8cc#X	.
4FF- 4F-	8a-L] 8dd	.
.	8dnJ	.
*	*^	*
4FF- 4F-	4d 4a-	8b-L	.
.	.	8bnJ	.
*	*v	*v	*
=15	=15	=15
4E- 4e-	8a-L 8cc 8ffn	ff
.	8d-XJ	.
*	*^	*
4EE- 4E-	4cc	8ggL	.
.	.	8ffJ 8aa-	.
*	*v	*v	*
4EEE- 4EE-	8a-L	.
.	[8ffJ 8bbn	.
4EE- 4E-	8ffL] 8aa- 8ccc	.
.	8ccJ	.
*	*^	*
*	*	*^	*
4E- 4e-	8an\L	4dd-	8ff#XL	.
.	8b-XJ	.	8ggJ	.
*	*	*v	*v	*
!!LO:LB:g=original
=16	=16	=16	=16
4A- 4e- 4a-	[2.cc	2.gg	>
4AA- 4A-	.	.	)
4AAA- 4AA-	.	.	)
4AA- 4A-	4cc]	4aa-	]
*	*v	*v	*
4GG-X 4G-X	8e-L 8a- 8cc	>
.	8A-J	.
=17	=17	=17
4F 4f	8a-L 8cc	p
.	8cJ	.
*	*^	*
4FF 4F	4e-	8gL	<
.	.	8a-J	.
*	*v	*v	*
4FFF 4FF	8A-L	.
.	8e-J 8g	.
4FF 4F	8a-L 8dd-	.
.	8d-J	.
4FF 4F	8a-L 8ee-	.
.	8cJ	.
=18	=18	=18
4F-X 4f-X	8ee-L 8aa-	.
.	8a-J	.
*	*^	*
4FF-X 4F-	4a-	8ddnL	.
.	.	8ee-J	.
*	*v	*v	*
4FFF-X 4FF-	8e-L	.
.	[8a-J 8cc#X	.
4FF- 4F-	8a-L] 8dd	.
.	8dnJ	.
*	*^	*
4FF- 4F-	4d 4a-	8b-L	.
.	.	8bnJ	.
*	*v	*v	*
!!LO:LB:g=original
=19	=19	=19
4E- 4e-	8a-L 8cc 8ffn	ff
.	8d-XJ	.
*	*^	*
4EE- 4E-	4cc	8ggL	.
.	.	8ffJ 8aa-	.
*	*v	*v	*
4EEE- 4EE-	8a-L	.
.	[8ffJ 8bbn	.
8.EE- 8.E-	8ffL] 8aa- 8ccc	.
.	16ccJk	.
16r	16r	.
*	*^	*
*	*	*^	*
4E- 4e-	8an\L	4dd-	8ff#XL	f
.	8b-XJ	.	8ggJ	.
*	*	*v	*v	*
=20	=20	=20	=20
4A- 4e- 4a-	[2.cc	2.gg	.
4AA- 4A-	.	.	>
4AAA- 4AA-	.	.	)
4AA- 4A-	4cc]	4aa-	]
*	*v	*v	*
4r	4r	.
==	==	==
*-	*-	*-
!!!system-decoration: {(*)}
!!!filter: flipper -a
!!!RDF**dynam: > = dim.
!!!ENC: Bryan Jacob Bell
!!!END: November 2021 to April 2022
!!!PED: Konstantin Igumnov and Yakov Milstein
!!!PTL: A.N. Skryabin: Polnoe sobranie sochinenii dlia fortepiano (Muzgiz)
